public/img/assets/icons/feels-like.svg

<svg width="20" height="20" viewBox="0 0 20 20" fill="none" xmlns="http://www.w3.org/2000/svg">
<path fill-rule="evenodd" clip-rule="evenodd" d="M14.688 5.02671C14.6222 5.10152 14.5 5.31332 14.5 5.83332C14.5 6.24754 14.1642 6.58332 13.75 6.58332C13.3358 6.58332 13 6.24754 13 5.83332C13 5.10333 13.1695 4.48179 13.562 4.03577C13.9669 3.57567 14.5073 3.41666 15 3.41666C15.4631 3.41666 15.8605 3.54972 16.1694 3.832C16.4502 4.08859 16.5874 4.40938 16.6682 4.61414C16.7668 4.86389 17.0589 5.13099 17.3584 5.03281C17.6905 4.92397 17.5833 4.49393 17.5833 4.16666C17.5833 3.75244 17.9191 3.41666 18.3333 3.41666C18.7475 3.41666 19.0833 3.75244 19.0833 4.16666C19.0833 4.67272 18.9627 5.36753 18.5791 5.90467C18.3777 6.18651 18.0878 6.44531 17.6916 6.57739C17.2932 6.71018 16.8635 6.68949 16.4295 6.54484C15.9946 6.39986 15.7294 6.1123 15.5627 5.82885C15.4491 5.63582 15.3608 5.39889 15.3056 5.25096C15.2108 4.99667 14.934 4.74719 14.688 5.02671Z" fill="#6A9CFF"/>
<path fill-rule="evenodd" clip-rule="evenodd" d="M3.33334 5.35712C3.33334 3.14798 5.1242 1.35712 7.33334 1.35712C9.54248 1.35712 11.3333 3.14798 11.3333 5.35712V9.65293C12.3612 10.6776 13 12.0977 13 13.6667C13 16.7963 10.463 19.3333 7.33334 19.3333C4.20372 19.3333 1.66667 16.7963 1.66667 13.6667C1.66667 12.0977 2.30547 10.6776 3.33334 9.65292V5.35712ZM4.83334 10.333V5.35712C4.83334 3.97641 5.95263 2.85712 7.33334 2.85712C8.71406 2.85712 9.83334 3.9764 9.83334 5.35712V10.333C10.8454 11.0932 11.5 12.3035 11.5 13.6667C11.5 15.9679 9.63452 17.8333 7.33334 17.8333C5.03215 17.8333 3.16667 15.9679 3.16667 13.6667C3.16667 12.3035 3.8213 11.0932 4.83334 10.333Z" fill="#6A9CFF"/>
<path fill-rule="evenodd" clip-rule="evenodd" d="M7.29899 8C6.82495 8 6.44066 8.38429 6.44066 8.85833V11.8647C5.62007 12.2126 5.04445 13.0256 5.04445 13.973C5.04445 15.2371 6.06922 16.2619 7.33333 16.2619C8.59745 16.2619 9.62222 15.2371 9.62222 13.973C9.62222 12.9994 9.0143 12.1677 8.15732 11.8369V8.85833C8.15732 8.38429 7.77303 8 7.29899 8Z" fill="#6A9CFF"/>
</svg>

<svg xmlns="http://www.w3.org/2000/svg" fill="none" viewBox="0 0 20 20"><path d="M14.69 5.03c-.07.07-.19.28-.19.8a.75.75 0 0 1-1.5 0c0-.73.17-1.35.56-1.8.4-.45.95-.61 1.44-.61.46 0 .86.13 1.17.41.28.26.42.58.5.78.1.25.39.52.69.42.33-.1.22-.54.22-.86a.75.75 0 0 1 1.5 0c0 .5-.12 1.2-.5 1.73-.2.29-.5.55-.89.68-.4.13-.83.1-1.26-.04-.44-.14-.7-.43-.87-.71-.11-.2-.2-.43-.25-.58-.1-.25-.38-.5-.62-.22Zm-11.36.33a4 4 0 1 1 8 0v4.3a5.65 5.65 0 0 1-4 9.67 5.67 5.67 0 0 1-4-9.68v-4.3Zm1.5 4.97V5.36a2.5 2.5 0 0 1 5 0v4.97a4.16 4.16 0 1 1-5 0Z" fill="#6A9CFF" fill-rule="evenodd" clip-rule="evenodd"/><path d="M7.3 8a.86.86 0 0 0-.86.86v3a2.29 2.29 0 1 0 1.72-.02V8.86A.86.86 0 0 0 7.3 8Z" fill="#6A9CFF" fill-rule="evenodd" clip-rule="evenodd"/></svg>
